fs/notebook_32_filled.svg

<svg viewBox="0 0 32 32" fill="none" xmlns="http://www.w3.org/2000/svg" height="1em" width="1em">
  <path d="M7.25 2C5.45508 2 4 3.45507 4 5.25V26.75C4 28.5449 5.45507 30 7.25 30H23.75C25.5449 30 27 28.5449 27 26.75V5.25C27 3.45507 25.5449 2 23.75 2H7.25ZM10 7H21C21.5523 7 22 7.44772 22 8V10C22 10.5523 21.5523 11 21 11H10C9.44771 11 9 10.5523 9 10V8C9 7.44772 9.44772 7 10 7ZM28 8H29.25C29.6642 8 30 8.33579 30 8.75V11.25C30 11.6642 29.6642 12 29.25 12H28V8ZM29.25 14H28V18H29.25C29.6642 18 30 17.6642 30 17.25V14.75C30 14.3358 29.6642 14 29.25 14ZM28 20H29.25C29.6642 20 30 20.3358 30 20.75V23.25C30 23.6642 29.6642 24 29.25 24H28V20Z" fill="#212121"/>
</svg>

<svg viewBox="0 0 32 32" fill="none" xmlns="http://www.w3.org/2000/svg" height="1em" width="1em">
  <path d="M7.25 2A3.25 3.25 0 0 0 4 5.25v21.5A3.25 3.25 0 0 0 7.25 30h16.5A3.25 3.25 0 0 0 27 26.75V5.25A3.25 3.25 0 0 0 23.75 2H7.25ZM10 7h11a1 1 0 0 1 1 1v2a1 1 0 0 1-1 1H10a1 1 0 0 1-1-1V8a1 1 0 0 1 1-1Zm18 1h1.25a.75.75 0 0 1 .75.75v2.5a.75.75 0 0 1-.75.75H28V8Zm1.25 6H28v4h1.25a.75.75 0 0 0 .75-.75v-2.5a.75.75 0 0 0-.75-.75ZM28 20h1.25a.75.75 0 0 1 .75.75v2.5a.75.75 0 0 1-.75.75H28v-4Z" fill="#212121"/>
</svg>
